X:54
T:Johnny Hall
O:Ireland, C19th
A:County Tyrone
B:Petrie Collection No. 747.
S:Bronson, Bertrand H. California Folklore Quarterly, 1942 p. 51
N:An Irish version of Sam Hall
Z:davidkidd.net
Q:1/4=120
M:4/4
L:1/8
K:G
z4 z2 GA |{G}BA GE D2 EG |A2 AG A/d3/2 z2 |{G}BA GE D2 EF |G6 z c
|{c}BA Bc d2 dd |(AB) GE c2 (Bc) |(AB) GE D2 (EG) |A2 AG A/d3/2 z2 |
{G}BA GE D2 EF |G6 z2 :|
